!!!COM: Corelli, Arcangelo
!!!OPR: Sonata da chiesa
!!!OPS: 1
!!!ONM: 7
!!!OMV: 3
!!!OMD: Allegro
**kern	**fb	**kern	**kern	**kern
*part4	*part4	*part3	*part2	*part1
*staff4	*	*staff3	*staff2	*staff1
*I"Organo	*	*I"Violone	*I"Violino II	*I"Violino I
*clefF4	*	*clefF4	*clefG2	*clefG2
*k[]	*	*k[]	*k[]	*k[]
*M6/8	*	*M6/8	*M6/8	*M6/8
*MM152	*	*MM152	*MM152	*MM152
=1	=1	=1	=1	=1
4c	.	2.r	2.r	4cc
8B	6	.	.	8g
4.A	.	.	.	8ccL
.	.	.	.	(16eeL
.	.	.	.	16ddJ)
.	.	.	.	8ccJ
=2	=2	=2	=2	=2
4.G	4	2.r	2.r	8ggL
.	.	.	.	(16aaL
.	.	.	.	16ggJ)
.	.	.	.	8ffJ
4.C	.	.	.	4ee
.	.	.	.	8cc
=3	=3	=3	=3	=3
8BBL	6_	2.r	4g	4gg
8G	.	.	.	.
8F#XJ	6	.	8d	8aa
4.E	.	.	8gL	8bbL
.	.	.	(16bL	8g
.	.	.	16aJ)	.
.	.	.	8gJ	8ggJ
=4	=4	=4	=4	=4
4.D	5 4	2.r	8ddL	4gg
.	.	.	(16eeL	.
.	.	.	16ddJ)	.
.	#	.	8ccJ	8ff#X
4.GG	.	.	4b	4gg
.	.	.	8g	8b
=5	=5	=5	=5	=5
4C	.	4C	4ee	4cc
8GG	.	8GG	8dd	8dd
4C	.	8CL	4cc	8eeL
.	.	(16EL	.	(16ggL
.	.	16DJ)	.	16ffniJ)
8C	.	8CJ	8cc	8eeJ
=6	=6	=6	=6	=6
4.GG	5 4	8GL	4cc	4dd
.	.	(16AL	.	.
.	.	16GJ)	.	.
.	3	8FJ	8b	8dd
4.C	.	4E	4.cc	4.cc
.	.	8C	.	.
=7	=7	=7	=7	=7
4c	.	4c	4ee	4gg
8c	.	8c	8ee	8gg
4c	.	4c	4ee	4gg
8B	#6\	8B	8dd	8gg#X
=8	=8	=8	=8	=8
4B	#6\	4B	4dd	4gg#X
8A	.	8A	8cc	8aa
8G#X	6	4G#X	4b	4bb
4E	#	.	.	.
.	.	8E	8b	8ee
=9	=9	=9	=9	=9
8CL	6	8CL	4ee	8aaL
8c	.	8c	.	(16bbL
.	.	.	.	16aaJ)
8BJ	nr6	8BJ	8dd	8ggniJ
4A	6	4A	4cc	4ff
8Gni	6	8Gni	8b	8ee
=10	=10	=10	=10	=10
4F	7	4F	4a	8eeL
.	.	.	.	(16ffL
.	.	.	.	16eeJ)
8F	6	8F	8a	8ddJ
4.E	#	4.E	4g#X	4ee
.	.	.	8g#	8ee
=11	=11	=11	=11	=11
4A	6	4A	4cc	8ffL
.	.	.	.	(16ggL
.	.	.	.	16ffJ)
8G	6	8G	8b	8eeJ
4F	6	4F	4a	4dd
8E	6	8E	8gni	8cc
=12	=12	=12	=12	=12
4F	6	4F	4a	8ddL
.	.	.	.	(16eeL
.	.	.	.	16ddJ)
8E	6	8E	8g	8ccJ
4D	-r6	4D	4f	4b-X
8C	6	8C	8e	8a
=13	=13	=13	=13	=13
8.AA	.	8.AA	4cc	8eeL
.	.	.	.	(16ggL
16BBKL	.	16BBKL	.	16ffJ)
8CJ	.	8CJ	8e	8eeJ
4D	#	4D	8.f#X	8ddL
.	.	.	.	(16eeL
.	.	.	16g#XKL	16ddJ)
8AA	.	8AA	8aJ	8ccJ
=14	=14	=14	=14	=14
4E	5 4	4E	4a	4b
8EE	#	8EE	8g#X	8b
4A	.	4A	4.a	4a
8G	6	8G	.	8e
=15	=15	=15	=15	=15
4.F	.	4.F	2.r	8aL
.	.	.	.	(16ccL
.	.	.	.	16bJ)
.	.	.	.	8aJ
4.E	6 4	4.E	.	8eeL
.	.	.	.	(16ffL
.	.	.	.	16eeJ)
.	5 #	.	.	8ddJ
=16	=16	=16	=16	=16
4.A	.	4.A	4ee	4cc
.	.	.	8cc	8a
4.r	.	4.r	4.r	8ffL
.	.	.	.	(16ggL
.	.	.	.	16ffJ)
.	.	.	.	8eeJ
=17	=17	=17	=17	=17
4.B	6 5	4.B	4ff	4dd
.	.	.	8dd	8b
4.r	.	4.r	4.r	8ggL
.	.	.	.	(16aaL
.	.	.	.	16ggJ)
.	.	.	.	8ffJ
=18	=18	=18	=18	=18
4.c	.	4.c	4gg	4ee
.	.	.	8ee	8cc
4C	.	4C	8eeL	8ggL
.	.	.	(16ffL	(16aaL
.	.	.	16eeJ)	16ggJ)
8D	6	8D	8ddJ	8ffJ
=19	=19	=19	=19	=19
4E	6	4E	8ccL	8eeL
.	.	.	(16eeL	(16ggL
.	.	.	16ddJ)	16ffJ)
8F	.	8F	8ccJ	8eeJ
4G	5 4	4G	4cc	4dd
8GG	3	8GG	8b	8dd
=20	=20	=20	=20	=20
4C	.	4C	4cc	4.ee
8BB	6	8BB	8g	.
4AA	.	4AA	8ccL	4.r
.	.	.	(16eeL	.
.	.	.	16ddJ)	.
8A	.	8A	8ccJ	.
=21	=21	=21	=21	=21
4G	4	4G	8ggL	8r
.	.	.	(16aaL	8r
.	.	.	16ggJ)	.
8GG	3	8GG	8ffJ	8r
8cL	.	8cL	4ee	8r
8B	.	8B	.	8r
8AJ	#6\	8AJ	8cc	8r
=22	=22	=22	=22	=22
4G	5	4G	4gg	4bb
8D	#	8D	8ff#X	8aa
4G	.	8GL	4gg	8bbL
.	.	(16BL	.	(16dddL
.	.	16AJ)	.	16cccJ)
8GG	.	8GJ	8gg	8bbJ
=23	=23	=23	=23	=23
4D	5 4	8dL	4gg	4aa
.	.	(16eL	.	.
.	.	16dJ)	.	.
8D	#	8cJ	8ff#X	8aa
4.GG	.	4.B	8ggL	8bbL
.	.	.	(16aaL	(16cccL
.	.	.	16ggJ)	16bbJ)
.	.	.	8ffnJ	8aaJ
=24	=24	=24	=24	=24
4c	.	8cL	4.ee	4.gg
.	.	(16dL	.	.
.	.	16cJ)	.	.
8B	.	8BJ	.	.
4.A	6	4.A	8ffL	8aaL
.	.	.	(16ggL	(16bb-XL
.	.	.	16ffJ)	16aaJ)
.	5	.	8eeJ	8ggJ
=25	=25	=25	=25	=25
4B-X	.	8B-XL	4.dd	4.ff
.	.	(16cL	.	.
.	.	16B-J)	.	.
8A	.	8AJ	.	.
4.G	6	4.G	8eeL	8ggL
.	.	.	(16ffL	(16aaL
.	.	.	16eeJ)	16ggJ)
.	5	.	8ddJ	8ffJ
=26	=26	=26	=26	=26
4A	.	8AL	4.cc	4.r
.	.	(16B-XL	.	.
.	.	16AJ)	.	.
8G	.	8GJ	.	.
4.F	6	4.F	8ddL	8ffL
.	.	.	(16eeL	(16ggL
.	.	.	16ddJ)	16ffJ)
.	5	.	8ccJ	8eeJ
=27	=27	=27	=27	=27
4G	n	8GL	4.b	4.dd
.	.	(16AL	.	.
.	.	16GJ)	.	.
8F	.	8FJ	.	.
4E	6	8EL	4.cc	4.ee
.	.	(16GL	.	.
.	.	16FJ)	.	.
8E	.	8EJ	.	.
=28	=28	=28	=28	=28
4D	6	8DL	4.dd	4.ff
.	.	(16FL	.	.
.	.	16EJ)	.	.
8D	6	8DJ	.	.
4C	5	8CL	4.ee	4.gg
.	.	(16DL	.	.
.	.	16CJ)	.	.
8BB-X	6 4	8BB-XJ	.	.
=29	=29	=29	=29	=29
4AA	6	8AAL	4.ff	4.aa
.	.	(16CL	.	.
.	.	16BB-XJ)	.	.
8AA	.	8AAJ	.	.
4BB-X	6 5	8BB-L	4.ff	4.gg
.	.	16DL	.	.
.	.	16CJ	.	.
8BB-	.	8BB-J	.	.
=30	=30	=30	=30	=30
4C	5 4	4C	4ff	4.gg
8C	3	8C	8ee	.
4F	.	4F	4.ff	4ff
8E	4 2	8E	.	8cc
=31	=31	=31	=31	=31
4.D	.	4.D	2.r	8ffL
.	.	.	.	(16aaL
.	.	.	.	16ggJ)
.	.	.	.	8ffJ
4.C	6 4	4.C	.	8cccL
.	.	.	.	16dddL
.	.	.	.	16cccJ
.	-r7 3	.	.	8bb-XJ
=32	=32	=32	=32	=32
8FL	.	8FL	4.r	4aa
8E	.	8E	.	.
8DJ	#6\	8DJ	.	8ff
8CL	.	8CL	4cc	4ee
8c	.	8c	.	.
8BJ	6	8BJ	8g	8dd
=33	=33	=33	=33	=33
8AL	5	8AL	8ccL	8eeL
8G	.	8G	(16eeL	(16ggL
.	.	.	16ddJ)	16ffJ)
8AJ	.	8AJ	8ccJ	8eeJ
8BL	6	8BL	8ggL	4dd
8A	.	8A	(16aaL	.
.	.	.	16ggJ)	.
8BJ	.	8BJ	8ffJ	8dd
=34	=34	=34	=34	=34
8cL	.	8cL	4ee	4.cc
8B	.	8B	.	.
8AJ	#6\	8AJ	8cc	.
4.G	.	4.G	8ggL	4.b
.	.	.	(16bbL	.
.	.	.	16aaJ)	.
.	.	.	8ggJ	.
=35	=35	=35	=35	=35
4.A	7	4.A	(4gg	4.cc
.	6	.	8ff)	.
4.B	5	4.B	8ffL	4.dd
.	.	.	(16aaL	.
.	.	.	16ggJ)	.
.	.	.	8ffJ	.
=36	=36	=36	=36	=36
4.c	5 4	4.c	4ff	4g
.	3	.	8ee	8r
4.E	#	4.E	4.g#X	8eeL
.	.	.	.	(16gg#XL
.	.	.	.	16ff#XJ)
.	.	.	.	8eeJ
=37	=37	=37	=37	=37
4.F#X	7	4.F#X	4.a	(4ee
.	6	.	.	8dd)
4.G#X	5	4.G#X	4.b	8ddL
.	.	.	.	(16ffniL
.	.	.	.	16eeJ)
.	.	.	.	8ddJ
=38	=38	=38	=38	=38
4.A	5 4	4.A	4.e	(4dd
.	3	.	.	8cc)
4.C	6	4.C	8ccL	8eeL
.	.	.	(16eeL	(16ggL
.	.	.	16ddJ)	16ffJ)
.	.	.	8ccJ	8eeJ
=39	=39	=39	=39	=39
4.D	6	4.D	8bL	8ddL
.	.	.	(16ccL	(16eeL
.	.	.	16bJ)	16ddJ)
.	7 5	.	8aJ	8ccJ
4.E	5 4	4.E	4a	4b
.	#	.	8g#X	8b
=40	=40	=40	=40	=40
4.AA	.	4.AA	4.a	4.a
4A	6	4A	4cc	8ffL
.	.	.	.	(16ggL
.	.	.	.	16ffJ)
8G	6	8G	8b	8eeJ
=41	=41	=41	=41	=41
4F	6	4F	4a	(4dd
8E	6	8E	8g	8cc)
4A	6	4A	4cc	8ffL
.	.	.	.	(16ggL
.	.	.	.	16ffJ)
8G	6	8G	8b	8eeJ
=42	=42	=42	=42	=42
4F	6	4F	4a	(4dd
8E	6	8E	8g	8cc)
4C	.	4C	8eeL	8ggL
.	.	.	(16ffL	(16aaL
.	.	.	16eeJ)	16ggJ)
8D	6	8D	8ddJ	8ffJ
=43	=43	=43	=43	=43
4E	6	4E	8ccL	8eeL
.	.	.	(16eeL	(16ggL
.	.	.	16ddJ)	16ffJ)
8F	7 5	8F	8ccJ	8eeJ
4G	5 4	4G	4cc	4dd
8GG	3	8GG	8b	8dd
=44	=44	=44	=44	=44
4C	.	4C	4.cc	4cc
8BB	6	8BB	.	8g
4.AA	.	4.AA	4.r	8ccL
.	.	.	.	(16eeL
.	.	.	.	16ddJ)
.	.	.	.	8ccJ
=45	=45	=45	=45	=45
4.GG	4	4.GG	2.r	8ggL
.	.	.	.	(16aaL
.	.	.	.	16ggJ)
.	3	.	.	8ffJ
8cL	.	8cL	.	4ee
8B	.	8B	.	.
8AJ	#6\	8AJ	.	8cc
=46	=46	=46	=46	=46
4G	.	4G	4g	4gg
8F#X	6	8F#X	8d	8aa
4.E	.	4.E	8gL	8bbL
.	.	.	(16bL	8g
.	.	.	16aJ)	.
.	.	.	8gJ	8ggJ
=47	=47	=47	=47	=47
4.D	5 4	4.D	8ddL	4gg
.	.	.	(16eeL	.
.	.	.	16ddJ)	.
.	7 #	.	8ccJ	8ff#X
4.G	.	4.G	4b	4gg
.	.	.	8g	8b
=48	=48	=48	=48	=48
4C	.	4C	8eeL	8ggL
.	.	.	(16ffL	(16aaL
.	.	.	16eeJ)	16ggJ)
8D	6	8D	8ddJ	8ffniJ
4E	6	4E	8ccL	8eeL
.	.	.	(16eeL	(16ggL
.	.	.	16ddJ)	16ffJ)
8F	7 5	8F	8ccJ	8eeJ
=49	=49	=49	=49	=49
4G	5 4	4G	4cc	4dd
8GG	3	8GG	8b	8dd
4.C	.	4.C	4.cc	4.cc
=50	=50	=50	=50	=50
4C	.	4C	8eeL	8ggL
.	.	.	(16ffL	(16aaL
.	.	.	16eeJ)	16ggJ)
8D	.	8D	8ddJ	8ffJ
4E	6	4E	8ccL	8eeL
.	.	.	(16eeL	(16ggL
.	.	.	16ddJ)	16ffJ)
8F	7 5	8F	8ccJ	8eeJ
=51	=51	=51	=51	=51
4G	5 4	4G	4cc	4dd
8GG	3	8GG	8b	8dd
4.C	.	4.C	4.cc	4.cc
=:|!	=:|!	=:|!	=:|!	=:|!
*-	*-	*-	*-	*-
!!!system-decoration: [{s1,s2},s3,s4]
!!!YEM: CC BY-NC-SA 4.0; CCARH; DCML
!!!RDF**kern: i = editorial accidental